X: 113
T: Were I a Clerk
N:"Moderate"
B:O'Neill's 113
Z:Transcribed by henrik.norbeck@mailbox.swipnet.se
M:6/8
L:1/8
K:G
(B/c/)|d2 e {e}d2 c|BAG G2 A|(Bdc) (BAG)|FGE D2 (B/c/)|
d2 e edB|BAG G2 A|.B(dc) (BA).G|FED G2||
D|(F<E)G G2 B|(BAG) (FE).c|(B>AB) d2 e|edB A2 (B/c/)|
d2 e (e<d).B|BAG G2 A|(Bdc) (BA).G|FED G2||


